24x24/apps/com.github.artemanufrij.playmyvideos.svg

<svg xmlns="http://www.w3.org/2000/svg" width="24" height="24" version="1">
 <rect style="opacity:0.2" width="16" height="20" x="-20.5" y="-22" rx="1" ry="1" transform="matrix(0,-1,-1,0,0,0)"/>
 <rect style="fill:#4f4f4f" width="16" height="20" x="-20" y="-22" rx="1" ry="1" transform="matrix(0,-1,-1,0,0,0)"/>
 <rect style="opacity:0.4" width="2" height="2" x="3" y="7" rx=".45" ry=".436"/>
 <rect style="opacity:0.4" width="2" height="2" x="3" y="16" rx=".45" ry=".436"/>
 <rect style="opacity:0.4" width="2" height="2" x="3" y="13" rx=".45" ry=".436"/>
 <rect style="opacity:0.4" width="2" height="2" x="3" y="10" rx=".45" ry=".436"/>
 <rect style="opacity:0.4" width="2" height="2" x="19" y="7" rx=".45" ry=".436"/>
 <rect style="opacity:0.4" width="2" height="2" x="19" y="16" rx=".45" ry=".436"/>
 <rect style="opacity:0.4" width="2" height="2" x="19" y="13" rx=".45" ry=".436"/>
 <rect style="opacity:0.4" width="2" height="2" x="19" y="10" rx=".45" ry=".436"/>
 <path style="opacity:0.2" d="m 9.3015875,8.5000679 c -0.2723085,-0.006 -0.319148,0.3879585 -0.29664,0.6723574 0.002,2.6617077 -0.0035,5.3237767 0.0025,7.9853667 0.023945,0.318239 0.3278095,0.44539 0.5005715,0.248033 1.846397,-1.362715 4.532106,-2.716069 6.375748,-4.084663 0.201172,-0.188376 0.124124,-0.627058 -0.100417,-0.718258 C 13.936902,11.245591 11.258056,9.880836 9.410106,8.5281417 9.375591,8.5096636 9.3384935,8.5001236 9.301377,8.5000617 Z"/>
 <path style="fill:#f4f4f7" d="m 9.3015875,8.0000694 c -0.2723085,-0.006 -0.319148,0.3879585 -0.29664,0.6723574 0.002,2.6617082 -0.0035,5.3237772 0.0025,7.9853672 0.023945,0.318239 0.3278095,0.44539 0.5005715,0.248033 1.846397,-1.362715 4.532106,-2.716069 6.375748,-4.084663 0.201172,-0.188376 0.124124,-0.627058 -0.100417,-0.718258 C 13.936902,10.745592 11.258056,9.3808375 9.410106,8.0281432 9.375591,8.0096651 9.3384935,8.0001251 9.301377,8.0000632 Z"/>
 <path style="fill:#f4f4f7;opacity:0.1" d="M 3 4 C 2.446 4 2 4.446 2 5 L 2 5.5 C 2 4.946 2.446 4.5 3 4.5 L 21 4.5 C 21.554 4.5 22 4.946 22 5.5 L 22 5 C 22 4.446 21.554 4 21 4 L 3 4 z"/>
</svg>

<svg xmlns="http://www.w3.org/2000/svg" width="24" height="24" version="1"><rect style="opacity:.2" width="16" height="20" x="-20.5" y="-22" rx="1" ry="1" transform="matrix(0 -1 -1 0 0 0)"/><rect style="fill:#4f4f4f" width="16" height="20" x="-20" y="-22" rx="1" ry="1" transform="matrix(0 -1 -1 0 0 0)"/><rect style="opacity:.4" width="2" height="2" x="3" y="7" rx=".45" ry=".436"/><rect style="opacity:.4" width="2" height="2" x="3" y="16" rx=".45" ry=".436"/><rect style="opacity:.4" width="2" height="2" x="3" y="13" rx=".45" ry=".436"/><rect style="opacity:.4" width="2" height="2" x="3" y="10" rx=".45" ry=".436"/><rect style="opacity:.4" width="2" height="2" x="19" y="7" rx=".45" ry=".436"/><rect style="opacity:.4" width="2" height="2" x="19" y="16" rx=".45" ry=".436"/><rect style="opacity:.4" width="2" height="2" x="19" y="13" rx=".45" ry=".436"/><rect style="opacity:.4" width="2" height="2" x="19" y="10" rx=".45" ry=".436"/><path style="opacity:.2" d="M9.302 8.5c-.273-.006-.32.388-.297.672.002 2.662-.004 5.324.002 7.986.024.318.328.445.501.248 1.846-1.363 4.532-2.716 6.376-4.085.2-.188.124-.627-.1-.718-1.847-1.357-4.526-2.722-6.374-4.075a.23.23 0 0 0-.109-.028z"/><path style="fill:#f4f4f7" d="M9.302 8c-.273-.006-.32.388-.297.672.002 2.662-.004 5.324.002 7.986.024.318.328.445.501.248 1.846-1.363 4.532-2.716 6.376-4.085.2-.188.124-.627-.1-.718-1.847-1.357-4.526-2.722-6.374-4.075A.23.23 0 0 0 9.301 8z"/><path style="fill:#f4f4f7;opacity:.1" d="M3 4c-.554 0-1 .446-1 1v.5c0-.554.446-1 1-1h18c.554 0 1 .446 1 1V5c0-.554-.446-1-1-1H3z"/></svg>
